X: 122047
T: Long Nights of Winter
N: 209
C: BB 11/05
L: 1/8
M: 6/8
R: jig
Q: 1/4=180
K: D
D | "Bm" F2B BAB | "A" Ace "D" d2e| "Bm" fed "F#m" edc|
"G" dcB "A" AFE | "Bm" FBB BAB | "A" Ace "D" def |
"G" gdB "D" Adf | "A" edc "D" d2 :|
e| "D" fef a^ga | "Bm" baf "Em"ede | "Bm"fdB "A"Ace | 
"Bm" dcd B2 c|"D"dAA "A"eAA |"Bm"fef "G"gab | 
"D"afd "G"Bcd | "A"edc "D"d2 :|
